public/img/binit-strategy/icons/icon-03.svg

<svg fill="none" height="34" viewBox="0 0 28 34" width="28" xmlns="http://www.w3.org/2000/svg"><g stroke="#fff" stroke-miterlimit="10" stroke-width="2"><path clip-rule="evenodd" d="m25.9228 29.5175c0 1.8629-1.7404 3.3737-3.8862 3.3737h-16.87309c-2.14585 0-3.88617-1.5108-3.88617-3.3737v-14.6506c0-1.7271 1.52318-3.1575 3.4487-3.346v-2.72497c0-4.23579 3.97878-7.68985 8.85806-7.68985 4.8793 0 8.858 3.45406 8.858 7.68985v2.72497c1.9575.1885 3.4487 1.6189 3.4487 3.346v14.6506z" fill-rule="evenodd"/><path d="m8.20654 22.8394 3.94686 3.4264 6.8367-8.8763"/><path d="m4.72607 11.5237h17.71613"/></g></svg>

<svg width="28" height="34" viewBox="0 0 28 34" fill="none" xmlns="http://www.w3.org/2000/svg">
<path fill-rule="evenodd" clip-rule="evenodd" d="M25.9228 29.5175C25.9228 31.3804 24.1824 32.8912 22.0366 32.8912H5.16351C3.01766 32.8912 1.27734 31.3804 1.27734 29.5175V14.8669C1.27734 13.1398 2.80052 11.7094 4.72604 11.5209V8.79593C4.72604 4.56014 8.70482 1.10608 13.5841 1.10608C18.4634 1.10608 22.4421 4.56014 22.4421 8.79593V11.5209C24.3996 11.7094 25.8908 13.1398 25.8908 14.8669V29.5175H25.9228Z" stroke="white" stroke-width="2" stroke-miterlimit="10"/>
<path d="M8.20654 22.8394L12.1534 26.2658L18.9901 17.3895" stroke="white" stroke-width="2" stroke-miterlimit="10"/>
<path d="M4.72607 11.5237H22.4422" stroke="white" stroke-width="2" stroke-miterlimit="10"/>
</svg>
